!!!OTL: Qingshan jian niao bu jin niao
!!!ARE: Asia, China,ÿGuangdong, Danxian
!! II, 406
!!!SCT: C1517
!!!YEM: Copyright 1995, estate of Helmut Schaffrath.
**kern
*ICvox
*Ivox
!! Mixed meters:  2/4; 3/4
*M3/4
*k[b-e-a-d-]
*A-:
{8a-
8b-
8ee-
8cc
=1
4.b-
16cc
16b-
=2
8a-
8b-
8ee-
8cc
=3
4.b-}
{16cc
16b-
=4
8a-
8b-
8cc
16b-
16cc
=5
8a-
8a-
2f}
=6
*M2/4
{8a-
8a-
16b-
16a-
8f
=7
*M3/4
4.e-
16f
16e-
8c
8r}
=8
{8e-
8f
8a-
8f
8e-
24e-
24f
24e-
=9
8c
8e-
8f
16e-
16f
8c
8c
=10
2B-
4r}
==
!!!AGN: Xiaodiao, Diaosheng
!!!AMT: irregular
!!!AIN: vox
!!!EED: Helmut Schaffrath
!!!EEV: 1.0
*-
